assets/Transgender symbol/Flat/transgender_symbol_flat.svg

<svg width="32" height="32" viewBox="0 0 32 32" fill="none" xmlns="http://www.w3.org/2000/svg">
<path d="M2 6C2 3.79086 3.79086 2 6 2H26C28.2091 2 30 3.79086 30 6V26C30 28.2091 28.2091 30 26 30H6C3.79086 30 2 28.2091 2 26V6Z" fill="#8D65C5"/>
<path d="M10.0312 5C10.5835 5 11.0312 5.44772 11.0312 6C11.0312 6.55228 10.5835 7 10.0312 7H8.25922L10.1911 8.98412L11.2929 7.88236C11.6834 7.49184 12.3166 7.49184 12.7071 7.88236C13.0976 8.27288 13.0976 8.90605 12.7071 9.29657L11.5865 10.4172L12.4406 11.2944C13.4363 10.5594 14.6674 10.125 16 10.125C17.3462 10.125 18.5888 10.5683 19.5898 11.3169L23.7269 7H21.9531C21.4008 7 20.9531 6.55228 20.9531 6C20.9531 5.44772 21.4008 5 21.9531 5H26C26.5523 5 27 5.44772 27 6V10.0469C27 10.5992 26.5523 11.0469 26 11.0469C25.4477 11.0469 25 10.5992 25 10.0469V8.56213L20.9719 12.7654C21.6209 13.7239 22 14.8802 22 16.125C22 19.098 19.8377 21.566 17 22.042V24H18.5C19.0523 24 19.5 24.4477 19.5 25C19.5 25.5523 19.0523 26 18.5 26H17V27C17 27.5523 16.5523 28 16 28C15.4477 28 15 27.5523 15 27V26H13.5C12.9477 26 12.5 25.5523 12.5 25C12.5 24.4477 12.9477 24 13.5 24H15V22.042C12.1623 21.566 10 19.098 10 16.125C10 14.8662 10.3876 13.698 11.05 12.7332L10.1721 11.8315L9.17157 12.8321C8.78104 13.2226 8.14788 13.2226 7.75735 12.8321C7.36683 12.4416 7.36683 11.8084 7.75735 11.4179L8.77679 10.3985L6.96875 8.54156V10.0625C6.96875 10.6148 6.52103 11.0625 5.96875 11.0625C5.41647 11.0625 4.96875 10.6148 4.96875 10.0625V6C4.96875 5.44772 5.41647 5 5.96875 5H10.0312ZM12 16.125C12 18.3341 13.7909 20.125 16 20.125C18.2091 20.125 20 18.3341 20 16.125C20 13.9159 18.2091 12.125 16 12.125C13.7909 12.125 12 13.9159 12 16.125Z" fill="white"/>
</svg>

<svg xmlns="http://www.w3.org/2000/svg" width="32" height="32" fill="none"><path fill="#8D65C5" d="M2 6a4 4 0 0 1 4-4h20a4 4 0 0 1 4 4v20a4 4 0 0 1-4 4H6a4 4 0 0 1-4-4V6Z"/><path fill="#fff" d="M10.031 5a1 1 0 1 1 0 2H8.26l1.932 1.984 1.102-1.102a1 1 0 1 1 1.414 1.415l-1.12 1.12.854.877A5.972 5.972 0 0 1 16 10.125c1.346 0 2.589.443 3.59 1.192L23.727 7h-1.774a1 1 0 1 1 0-2H26a1 1 0 0 1 1 1v4.047a1 1 0 1 1-2 0V8.562l-4.028 4.203A6.002 6.002 0 0 1 17 22.042V24h1.5a1 1 0 1 1 0 2H17v1a1 1 0 1 1-2 0v-1h-1.5a1 1 0 1 1 0-2H15v-1.958a6.002 6.002 0 0 1-3.95-9.309l-.878-.902-1 1.001a1 1 0 0 1-1.415-1.414l1.02-1.02-1.808-1.856v1.52a1 1 0 1 1-2 0V6a1 1 0 0 1 1-1h4.062ZM12 16.125a4 4 0 1 0 8 0 4 4 0 0 0-8 0Z"/></svg>
